X:1
T:India Basin, CMD
T:India Basin, CMD
T:Scott Werdebaugh, 1975
T:© 1975 Scott Werdebaugh. Reproduce or publish freely for Christian worship or devotions. Courtesy of the Cyber Hymnal™
C:Scott Werdebaugh, 1975
Z:© 1975 Scott Werdebaugh. Reproduce or publish freely for Christian worship or devotions.
Z:Courtesy of the Cyber Hymnal™
%%score ( 1 2 ) ( 3 4 )
L:1/8
Q:1/4=128
M:6/4
K:Eb
V:1 treble 
V:2 treble 
V:3 bass 
V:4 bass 
V:1
"^Introspectively" [EG]2 | [CE]4 [B,D]2 C4 [EG]2 | (A3 B) [EA]2 [EG]4 [DF]2 | %3
 ([CE]3 [B,D]) C2 C3 [=B,D] B,2 | [G,C]6- [G,C]2 z2 [EG]2 | [CE]4 [_B,D]2 C4 [EG]2 | %6
 (A3 B) [EA]2 [EG]4 [DF]2 | ([CE]3 [B,D]) C2 C3 [=B,D] B,2 | [G,C]6- [G,C]2 z2 [EG]2 | %9
 (c3 _B) [FA]2 ([GB][FA] [EG]2) [EG]2 | (A3 G) [DF]2 [EG]4 (cd) | (e3 d) [Gc]2 (c3 d) [F=B]2 | %12
 [Ec]6- [Ec]2 z2 [EG]2 | [GB]4 (GF) [EG]4 [EG]2 | (G3 A) (GF) [CE]4 (cd) | %15
 (e3 d) [Gc]2 (c3 d) [F=B]2 | [Ec]4- !fermata![Ec]2 z2"^Play 4 times" :| z2 ([CA]2 [CE]2 [CF]2) | %18
 [=EG]6 z2 |] %19
V:2
 x2 | x6 C4 x2 | E4 x8 | x4 C2 (C3 =B,2) x | x12 | x6 C4 x2 | E4 x8 | x4 C2 (C3 =B,2) x | x12 | %9
 G4 x8 | D4 x3 F2 x3 | G4 F4 x4 | x12 | x4 D2 x6 | D4 D2 x3 G2 x | G4 F4 x4 | x8 :| x8 | x8 |] %19
V:3
 [C,G,]2 | [C,G,]4 [D,F,]2 [E,G,]4 [C,G,]2 | (A,3 F,) [C,E,]2 [C,G,]4 [G,B,]2 | %3
 ([C,G,]3 [D,F,]) [E,G,]2 ([C,E,]3 [D,F,]) [D,G,]2 | [C,E,]6- [C,E,]2 z2 [C,G,]2 | %5
 [C,G,]4 [D,F,]2 [E,G,]4 [C,G,]2 | (A,3 F,) [C,E,]2 [C,G,]4 [G,B,]2 | %7
 ([C,G,]3 [D,F,]) [E,G,]2 ([C,E,]3 [D,F,]) [D,G,]2 | [C,E,]6- [C,E,]2 z2 [C,G,]2 | %9
 (E,3 F,) [D,A,]2 ([E,G,][D,A,] [E,C]2) [C,G,]2 | (A,3 B,) [B,,A,]2 [C,G,]4 [E,A,]2 | %11
 [C,G,]4 [E,G,]2 (A,3 =B,) [D,G,]2 | [C,G,]6- [C,G,]2 z2 [C,G,]2 | %13
 [E,G,]4 [G,_B,]2 [E,B,]4 [E,B,]2 | (B,3 C) (F,A,) [C,G,]4 (G,B,) | %15
 (C3 B,) [E,G,]2 (A,3 =B,) [D,G,]2 | [C,G,]4- !fermata![C,G,]2 z2"^Play 4 times" :| %17
 z2 ([A,,E,]2 [C,A,]2 A,B,) | !fermata![C,C]6 z2 |] %19
V:4
 x2 | x12 | C,4 x8 | x12 | x12 | x12 | C,4 x8 | x12 | x12 | C,4 x8 | F,4 x8 | x6 F,4 x2 | x12 | %13
 x12 | D,4 B,,2 x3 E,2 x | E,4 F,4 x4 | x8 :| x6 D,2 | x8 |] %19

